X: 218
Q: "With martial spirit throughout."
M: 4/4
L: 1/16
K: Ab
|:\
e7 d c7 d | e7 d c7 d | e3f e3d c3B c3d | e4 e4 z8 |
f4 f4 e4 e4 | d4 d4 c4 c4 | B4 d2c2 B4 A4 | G4 F4 G4 E4 |


